X:1
T:Lady Edmonton's -- Reel
R:reel
B:Ryan's Mammoth Collection
Z: Contributed by Ray Davies,  ray:davies99.freeserve.co.uk
M:2/4
L:1/16
K:Bb
vB2bg fdcB|AFcF dFcF|B2bg fdcB|FGBc dBB2|
B2bg fdcB|AFcF dFcF|B2bg fdcB|FGBc dBB2::
BFDF EDEF|AFcF dFcF|BFDF Bcde|fgfe dBB2|
BFDF EDEF|AFcF dFcF|BFDF Bcde|fgfe dBB2:|
